!!!COM: Bach, Johann Sebastian
!!!OPR: Joh. Seb. Bachs vierstimmige Choralges‰nge
!!!XEN: Four-part Chorales
!!!OTL: 108. Jesu, meines Herzens Freud'
!!!SCT: BWV 361
!!!SCA: Thematisch-systematisches Verzeichnis der musikalischen Werke Johann Sebastian Bach: Bach-Werke-Verzeichnis (Schmieder)
!!!YOR: Bach Gesellschaft Edition xxxix
!!!ENC: Steven Rasmussen
!!!CDT: 1685/3//-1750/7/28/
!!!OCY: Deutschland
!!!YEC: Copyright (c) 1994, 2000 Center for Computer Assisted Research in the Humanities
!!!YEM: Rights to all derivative editions reserved
!!!YEN: United States of America
**kern	**silbe	**kern	**kern	**kern
*I:[SOPRANO]	*I:[SOPRANO]	*I:[ALTO]	*I:[TENORE]	*I:[BASSO]
*clefG2	*	*clefG2	*clefGv2	*clefF4
*k[b-e-]	*	*k[b-e-]	*k[b-e-]	*k[b-e-]
*B-:	*	*B-:	*B-:	*B-:
*M4/4	*	*M4/4	*M4/4	*M4/4
=1-	=1-	=1-	=1-	=1-
4dd	Je-	4f	4B-	8B-L
.	.	.	.	8AJ
8ddL	-su,	4g	8B-L	4G
8ee-J	.	.	8cJ	.
8ffL	mei-	4f	8dL	4D
8ee-J	.	.	8cJ	.
4dd	-nes	8b-L	4B-	8GL
.	.	8aJ	.	8FJ
=2	=2	=2	=2	=2
4.cc	Her-	4g	4B-	8EnL
.	.	.	.	8DJ
.	.	8fL	8AL	4C
8cc	-zens	8enJ	8GJ	.
2cc;	Freud',	2f;	2A;	2F;
=3	=3	=3	=3	=3
4dd	s√º-	4f	4B-	8B-L
.	.	.	.	8AJ
8ee-L	-sser	8e-L	4B-	8GL
8ddJ	.	8fJ	.	8FJ
4.cc	Je-	4g	4B-	4E-
.	.	16fLL	4A	4F
.	.	16e-	.	.
8b-	.	16d	.	.
.	.	16e-JJ	.	.
=4	=4	=4	=4	=4
2b-;	-su!	2d;	2F;	2BB-;
8aL	Mei-	4c	4F	8FL
8gJ	.	.	.	8EnJ
8aL	-ner	4f	4c	8FL
8b-J	.	.	.	8GJ
=5	=5	=5	=5	=5
8ccL	See-	4f	4c	8AL
8b-J	.	.	.	8GJ
4a	-len	4f	4c	8AL
.	.	.	.	8B-J
4.g	Se-	8fL	4c	4c
.	.	8enJ	.	.
.	.	4d	8cL	4G
8g	-lig-	.	8BnJ	.
=6	=6	=6	=6	=6
2g;	-keit,	2en;	2c;	2C;
4a	s√º-	4e	8AL	4C#
.	.	.	8GJ	.
8b-L	-sser	4d	4F	8DL
8aJ	.	.	.	8CnJ
=7	=7	=7	=7	=7
4.g	Je-	4d	4F	4BB-
.	.	4c	4En	4C
8f	.	.	.	.
2f;	-su!	2c;	2A;	2F;
=8	=8	=8	=8	=8
4dd	Des	4c	4a	4F#
8ddL	Ge-	4B-	4g	4G
8ee-J	.	.	.	.
4ff	-m√º-	4c	4f	4A
8ee-L	-tes	4f	4B-	4B-
8ddJ	.	.	.	.
=9	=9	=9	=9	=9
4.cc	Si-	8gL	4.e-	8B-L
.	.	8fJ	.	8AJ
.	.	4g	.	8B-L
8cc	-cher-	.	8e-	8GJ
2cc;	-heit,	2f;	2e-;	2A;
=10	=10	=10	=10	=10
4dd	s√º-	4f	8dL	8B-L
.	.	.	8cJ	8AJ
8ee-L	-sser	8e-L	4B-	8GL
8ddJ	.	8fJ	.	8FJ
4.cc	Je-	4g	4B-	4En
.	.	4a	8AL	4F#
8b-	.	.	8dJ	.
=11	=11	=11	=11	=11
2b-;	-su!	2g;	2d;	2G;
8ee-L	Je-	4g	4c	8cL
8ddJ	.	.	.	8B-J
8ee-L	-su,	4f	4c	8AL
8ffJ	.	.	.	8FJ
=12	=12	=12	=12	=12
8ddL	s√º-	4f	4c	8B-L
8ccJ	.	.	.	8AJ
8ddL	-sser	4b-	4B-	8GL
8ee-J	.	.	.	8FJ
4.ccT	Je-	4b-	4g	4E-
.	.	4a	8fL	4F
8b-	.	.	8e-J	.
=13	=13	=13	=13	=13
1b-;	-su!	1f;	1d;	1BB-;
==|!	==|!	==|!	==|!	==|!
*-	*-	*-	*-	*-
!!!RWG: Key is interpreted using the Humdrum key tool.
!!!END: 1994/07/08
!!!EMD: Converted from MuseData to Humdrum Dec 19, 2000, by Andreas Kornstaedt using muse2kern.
!!!EED: Craig Stuart Sapp
!!!EEV: 2024/03/31
!!!ONB: Some non-unicode characters
